src/icons/tex.svg

<svg width="16" height="16" viewBox="0 0 16 16" fill="none" xmlns="http://www.w3.org/2000/svg">
<path fill-rule="evenodd" clip-rule="evenodd" d="M1.007 5H5.22L5.227 6.412H5.025C4.959 5.908 4.77 5.56733 4.458 5.39C4.28267 5.292 4.02067 5.23833 3.672 5.229V8.914C3.672 9.17133 3.717 9.342 3.807 9.426C3.897 9.51067 4.08433 9.553 4.369 9.553V9.73H1.875V9.553C2.14833 9.553 2.33 9.51033 2.42 9.425C2.51 9.339 2.555 9.16867 2.555 8.914V5.229C2.213 5.239 1.951 5.29233 1.769 5.389C1.43433 5.57167 1.24533 5.91267 1.202 6.412H1L1.007 5ZM5.604 11.23V11.053C5.804 11.0463 5.94633 11.019 6.031 10.971C6.161 10.8977 6.226 10.761 6.226 10.561V7.172C6.226 6.96667 6.15867 6.829 6.024 6.759C5.94733 6.71567 5.80733 6.68833 5.604 6.677V6.5H9.637V7.912H9.467C9.37767 7.46067 9.22633 7.15167 9.013 6.985C8.80033 6.81833 8.41267 6.735 7.85 6.735C7.63533 6.735 7.499 6.75733 7.441 6.802C7.383 6.84667 7.354 6.935 7.354 7.067V8.687C7.75333 8.69233 8.02333 8.62 8.164 8.47C8.30533 8.32067 8.41367 8.048 8.489 7.652H8.666V10.017H8.49C8.44 9.61767 8.338 9.337 8.184 9.175C8.03067 9.01167 7.75433 8.93 7.355 8.93V10.626C7.355 10.7733 7.39333 10.874 7.47 10.928C7.546 10.9813 7.70267 11.008 7.94 11.008C8.386 11.008 8.75033 10.9213 9.033 10.748C9.31567 10.5753 9.56633 10.2507 9.785 9.774H9.98L9.696 11.231L5.604 11.23ZM10.273 9.553C10.451 9.521 10.5787 9.48767 10.656 9.453C10.792 9.38674 10.91 9.28863 11 9.167L12.224 7.619L10.839 5.585C10.7647 5.4693 10.6737 5.36518 10.569 5.276C10.4842 5.21533 10.3832 5.18154 10.279 5.179V5H12.702V5.178C12.5504 5.17889 12.3995 5.19701 12.252 5.232C12.1787 5.25733 12.142 5.31667 12.142 5.41C12.142 5.45067 12.151 5.49067 12.169 5.53C12.187 5.56933 12.2133 5.61467 12.248 5.666L12.928 6.719C13.3107 6.18367 13.5407 5.85433 13.618 5.731C13.6953 5.60767 13.734 5.50533 13.734 5.424C13.734 5.324 13.6773 5.25567 13.564 5.219C13.452 5.19225 13.3372 5.17849 13.222 5.178V5H14.972V5.178C14.662 5.208 14.417 5.312 14.237 5.49C14.057 5.67 13.6777 6.16633 13.099 6.979L14.37 8.955C14.5367 9.21233 14.659 9.37167 14.737 9.433C14.8288 9.5001 14.9369 9.54152 15.05 9.553V9.73H12.67V9.553C12.8747 9.54367 13.0103 9.53 13.077 9.512C13.179 9.48133 13.23 9.422 13.23 9.334C13.2263 9.28536 13.2155 9.23752 13.198 9.192C13.1677 9.11493 13.1295 9.0412 13.084 8.972L12.379 7.837L12.113 8.192C11.887 8.49533 11.7343 8.70733 11.655 8.828C11.523 9.03067 11.457 9.174 11.457 9.258C11.457 9.382 11.5377 9.46667 11.699 9.512C11.7903 9.53867 11.8987 9.552 12.024 9.552V9.73H10.274L10.273 9.553Z" fill="#2ECC71"/>
</svg>

<svg xmlns="http://www.w3.org/2000/svg" width="16" height="16" fill="none"><path fill="#2ECC71" fill-rule="evenodd" d="M1.007 5H5.22l.007 1.412h-.202q-.099-.756-.567-1.022-.263-.147-.786-.161v3.685q0 .386.135.512.135.127.562.127v.177H1.875v-.177q.41 0 .545-.128.135-.129.135-.511V5.229q-.513.015-.786.16-.502.274-.567 1.023H1zm4.597 6.23v-.177q.3-.01.427-.082.195-.11.195-.41V7.172q0-.308-.202-.413-.115-.065-.42-.082V6.5h4.033v1.412h-.17q-.134-.677-.454-.927-.319-.25-1.163-.25-.322 0-.409.067t-.087.265v1.62q.599.008.81-.217.212-.224.325-.818h.177v2.365H8.49q-.075-.599-.306-.842-.23-.245-.829-.245v1.696q0 .221.115.302.114.08.47.08.669 0 1.093-.26.424-.259.752-.974h.195l-.284 1.457zm4.669-1.677q.267-.048.383-.1A.94.94 0 0 0 11 9.167l1.224-1.548-1.385-2.034a1.4 1.4 0 0 0-.27-.309.52.52 0 0 0-.29-.097V5h2.423v.178a2 2 0 0 0-.45.054q-.11.038-.11.178 0 .061.027.12t.079.136l.68 1.053q.574-.803.69-.988t.116-.307q0-.15-.17-.205a1.5 1.5 0 0 0-.342-.041V5h1.75v.178q-.465.045-.735.312-.27.27-1.138 1.489l1.271 1.976q.25.386.367.478a.64.64 0 0 0 .313.12v.177H12.67v-.177q.307-.014.407-.041.153-.046.153-.178a.5.5 0 0 0-.032-.142 1.2 1.2 0 0 0-.114-.22l-.705-1.135-.266.355q-.339.455-.458.636-.198.304-.198.43 0 .186.242.254.137.04.325.04v.178h-1.75z" clip-rule="evenodd"/></svg>
